X:1
T:Chope, PM
T:Chope, PM
T:Chope\'s Carols
T:Public Domain Courtesy of the Cyber Hymnal™
C:Chope\'s Carols
Z:Public Domain
Z:Courtesy of the Cyber Hymnal™
%%score ( 1 2 ) ( 3 4 ) ( 5 6 )
L:1/8
Q:1/4=140
M:6/4
K:F
V:1 treble 
V:2 treble 
V:3 treble 
V:4 treble 
V:5 bass 
V:6 bass 
V:1
 CC | C2 D2 E2 F2 A2 B2 | c4 G2 c4 d2 | e2 d2 c2 d4 e2 | c6- c4 C2 | C2 D2 E2 F2 A2 B2 | %6
 c4 G2 c4 d2 | e2 d2 c2 d4 e2 | c6- c2 z2 cc | c2 B2 A2 d4 F2 | F4 E2 D4 C2 | F2 G2 A2 B4 B2 | %12
 B6- B4 GG | A4 d2 =B2 A2 G2 | c4 G2 F4 E2 | D4 D2 D2 E2 F2 | G8 z2 ||"^Refrain" [E^G][EG] | %18
 [FA]4 A2 [FA]4 [EA]2 | A4 c2 [EG]4 [EA]2 | [DB]2 [DA]2 [DB]2 [Dd]4 [GB]2 | [FA]6 [EG]4 z2 | %22
 [Ec]2 [Fd]2 [Ge]2 [Ff]2 [Ge]2 [Af]2 | d4 [Ec]4 [CB]2 x2 | A2 G2 [DF]2 [FA]4 [EG]2 | F8 z2 |] %26
V:2
 x2 | x12 | x12 | x12 | x12 | x12 | x12 | x12 | x12 | x12 | x12 | x12 | x12 | x12 | x12 | x12 | %16
 x10 || x2 | x4 G2 x6 | F6 x6 | x12 | x12 | x12 | B4 G2 x6 | C4 x8 | x10 |] %26
V:3
 [A,C]2 | [A,B,C]4 [A,B,C]2 [A,C]4 [CF]2 | [B,CE]4 [B,CE]2 [B,CE]4 [B,D]2 | %3
 [B,C]4 [B,C]2 [CD]4 [B,D]2 | [A,CF]4 [A,CF]2 [A,CF]4 [A,C]2 | [G,B,C]4 [G,B,C]2 [A,C]4 [CF]2 | %6
 [B,CE]4 [B,CE]2 [A,F]4 [A,F]2 | [CE]4 [EG]2 [DF]4 [=B,G]2 | [CE]4 [CE]2 [CE]2 z2 [Ec]2 | %9
 c2 B2 [FA]2 [Dd]4 [DF]2 | F4 E2 D4 C2 | F2 G2 [FA]2 B4 [DB]2 | [EB]6- [EB]4 [EG]2 | %13
 A4 d2 =B2 A2 G2 | c4 G2 F4 E2 | D6 D2- E2 F2 | [EG]8 z2 || x2 | x12 | x12 | x12 | x12 | x12 | %23
 x12 | x12 | x10 |] %26
V:4
 x2 | x12 | x12 | x12 | x12 | x12 | x12 | x12 | x12 | E4 x8 | C6 G,4 x2 | C4 F2 E2 x4 | x12 | %13
 F6 G6 | G6 C4 x2 | x8 D4 | x10 || x2 | x12 | x12 | x12 | x12 | x12 | x12 | x12 | x10 |] %26
V:5
 [F,,F,]2 | [F,,E,]4 [F,,E,]2 [F,,F,]4 [F,,F,]2 | [F,,C,]4 [F,,C,]2 [F,,C,]4 [F,,F,]2 | %3
 [F,,G,]4 [F,,G,]2 [F,,G,]4 [F,,G,]2 | [F,,F,]4 [F,,F,]2 [F,,F,]4 [F,,F,]2 | %5
 [F,,E,]4 [F,,E,]2 [F,,F,]4 [F,,F,]2 | [F,,G,]4 [F,,G,]2 [F,,F,]4 [F,,F,]2 | %7
 [G,,G,]4 [G,,G,]2 [G,,G,]4 [G,,G,]2 | [C,G,]4 [C,G,]2 [C,G,]2 z2 [C,G,]2 | %9
 [A,,A,]4 [D,A,]2 B,4 A,2 | A,4 G,2- G,2 F,2 E,2 | [A,,F,]4 [D,F,]2 [G,,G,]6 | %12
 G,2 ^F,2 G,2 [C,C]4 [C,C]2 | C4 A,2 D4 =B,2 | [E,C]6 A,4 [G,C]2 | C6 [G,=B,]6 | [C,B,]8 z2 || %17
 [C,B,][C,B,] | [F,A,]4 [E,^C]2 [D,D]4 [^C,E]2 | [D,D]4 [A,,C]2 [C,C]4 [C,C]2 | %20
 [G,B,]2 [G,C]2 [G,B,]2 [B,,G,]4 [B,,D]2 | [C,-C]6 [C,C]4 z2 | C2 C2 C2 [A,C]2 [G,B,]2 [F,C]2 | %23
 D4 B,2 [C,G,]4 [E,G,]2 | F,2- F,2 [B,,D]2 [C,C]4 [C,B,]2 | [F,A,]8 z2 |] %26
V:6
 x2 | x12 | x12 | x12 | x12 | x12 | x12 | x12 | x12 | x6 B,,6 | C,6 B,,4- B,,2 | x12 | C,6- x6 | %13
 F,6 F,6 | x12 | F,4 D,2 x6 | x10 || x2 | x12 | x12 | x12 | x12 | x4 B,2 x6 | B,,6 x6 | %24
 x2 A,,2 x8 | x10 |] %26

